; generated by PrusaSlicer 2.3.0-alpha1+win64 on 2020-11-25 at 16:51:43 UTC

; 

; external perimeters extrusion width = 0.45mm
; perimeters extrusion width = 0.45mm
; infill extrusion width = 0.45mm
; solid infill extrusion width = 0.45mm
; top infill extrusion width = 0.40mm
; support material extrusion width = 0.38mm
; first layer extrusion width = 0.42mm

M201 X500 Y500 Z100 E5000 ; sets maximum accelerations, mm/sec^2
M203 X500 Y500 Z10 E60 ; sets maximum feedrates, mm/sec
M204 P500 R1000 T500 ; sets acceleration (P, T) and retract acceleration (R), mm/sec^2
M205 X8.00 Y8.00 Z0.40 E5.00 ; sets the jerk limits, mm/sec
M205 S0 T0 ; sets the minimum extruding and travel feed rate, mm/sec
M107 ; disable fan
;TYPE:Custom
G90 ; use absolute coordinates
M83 ; extruder relative mode
M104 S220 ; set extruder temp
M140 S70 ; set bed temp
M190 S70 ; wait for bed temp
M109 S220 ; wait for extruder temp
G28 ; home all
G29 ; auto bed level
G1 Z2 F240
G1 X2 Y10 F3000
G1 Z0.28 F240
G92 E0.0
G1 Y190 E15.0 F1500.0 ; intro line
G1 X2.3 F5000
G1 Y10 E15.0 F1200.0 ; intro line
G92 E0.0
G21 ; set units to millimeters
G90 ; use absolute coordinates
M83 ; use relative distances for extrusion
; Filament gcode
; LAYER_CHANGE
;Z:0.2
;HEIGHT:0.2
;BEFORE_LAYER_CHANGE
G92 E0
;0.2


G1 E-5.00000 F3600.00000 ; retract
G1 Z0.200 F9000.000 ; move to next layer (0)
;AFTER_LAYER_CHANGE
;0.2
G1 X90.736 Y108.763 ; move to first skirt point
G1 E5.00000 F2400.00000 ; unretract
;TYPE:Skirt
G1 F1200.000
G1 X91.790 Y108.236 E0.03327 ; skirt
G1 X92.947 Y108.000 E0.03331 ; skirt
G1 X117.481 Y106.502 E0.69362 ; skirt
G1 X119.805 Y106.645 E0.06569 ; skirt
G1 X122.185 Y107.114 E0.06846 ; skirt
G1 X124.453 Y107.885 E0.06759 ; skirt
G1 X126.554 Y108.929 E0.06620 ; skirt
G1 X128.552 Y110.275 E0.06799 ; skirt
G1 X130.340 Y111.868 E0.06756 ; skirt
G1 X131.918 Y113.708 E0.06840 ; skirt
G1 X133.146 Y115.597 E0.06360 ; skirt
G1 X133.506 Y116.551 E0.02878 ; skirt
G1 X133.619 Y117.595 E0.02962 ; skirt
G1 X133.473 Y118.577 E0.02802 ; skirt
G1 X133.066 Y119.549 E0.02974 ; skirt
G1 X131.962 Y121.232 E0.05679 ; skirt
G1 X130.701 Y122.754 E0.05578 ; skirt
G1 X129.146 Y124.242 E0.06075 ; skirt
G1 X127.510 Y125.476 E0.05780 ; skirt
G1 X125.240 Y126.763 E0.07366 ; skirt
G1 X123.977 Y127.305 E0.03880 ; skirt
G1 X122.699 Y127.741 E0.03809 ; skirt
G1 X121.323 Y128.094 E0.04010 ; skirt
G1 X119.983 Y128.331 E0.03838 ; skirt
G1 X117.434 Y128.497 E0.07208 ; skirt
G1 X92.712 Y126.977 E0.69896 ; skirt
G1 X91.787 Y126.763 E0.02678 ; skirt
G1 X90.921 Y126.356 E0.02701 ; skirt
G1 X90.170 Y125.781 E0.02670 ; skirt
G1 X89.547 Y125.041 E0.02729 ; skirt
G1 X89.016 Y123.948 E0.03429 ; skirt
G1 X88.787 Y122.745 E0.03456 ; skirt
G1 X88.790 Y112.216 E0.29710 ; skirt
G1 X88.990 Y111.135 E0.03104 ; skirt
G1 X89.380 Y110.230 E0.02782 ; skirt
G1 X89.968 Y109.424 E0.02815 ; skirt
G1 X90.690 Y108.802 E0.02690 ; skirt
G1 X91.065 Y108.998 F9000.000 ; move to first skirt point
G1 F1200.000
G1 X91.955 Y108.578 E0.02775 ; skirt
G1 X92.988 Y108.375 E0.02971 ; skirt
G1 X117.484 Y106.880 E0.69254 ; skirt
G1 X119.758 Y107.019 E0.06431 ; skirt
G1 X122.088 Y107.478 E0.06702 ; skirt
G1 X124.309 Y108.234 E0.06620 ; skirt
G1 X126.363 Y109.253 E0.06469 ; skirt
G1 X128.322 Y110.574 E0.06667 ; skirt
G1 X130.073 Y112.134 E0.06616 ; skirt
G1 X131.617 Y113.935 E0.06694 ; skirt
G1 X132.821 Y115.788 E0.06237 ; skirt
G1 X133.164 Y116.749 E0.02881 ; skirt
G1 X133.235 Y117.743 E0.02812 ; skirt
G1 X133.028 Y118.733 E0.02852 ; skirt
G1 X132.573 Y119.643 E0.02872 ; skirt
G1 X131.413 Y121.333 E0.05785 ; skirt
G1 X130.135 Y122.802 E0.05493 ; skirt
G1 X128.619 Y124.190 E0.05800 ; skirt
G1 X127.069 Y125.314 E0.05404 ; skirt
G1 X124.913 Y126.500 E0.06944 ; skirt
G1 X123.670 Y127.018 E0.03799 ; skirt
G1 X122.411 Y127.433 E0.03741 ; skirt
G1 X119.907 Y127.961 E0.07222 ; skirt
G1 X117.273 Y128.118 E0.07445 ; skirt
G1 X92.768 Y126.604 E0.69283 ; skirt
G1 X91.911 Y126.407 E0.02480 ; skirt
G1 X91.114 Y126.033 E0.02485 ; skirt
G1 X90.423 Y125.501 E0.02461 ; skirt
G1 X89.848 Y124.812 E0.02532 ; skirt
G1 X89.371 Y123.821 E0.03104 ; skirt
G1 X89.163 Y122.713 E0.03182 ; skirt
G1 X89.166 Y112.232 E0.29575 ; skirt
G1 X89.356 Y111.227 E0.02887 ; skirt
G1 X89.728 Y110.381 E0.02609 ; skirt
G1 X90.282 Y109.640 E0.02610 ; skirt
G1 X91.019 Y109.036 E0.02689 ; skirt
G1 E-3.50000 F3600.00000 ; retract
G1 F7200.000
G1 X91.955 Y108.578 E-0.49474 ; wipe and retract
G1 X92.988 Y108.375 E-0.50002 ; wipe and retract
G1 X93.892 Y108.319 E-0.43024 ; wipe and retract
G1 E-0.07500 F3600.00000 ; retract
G1 X87.175 Y110.777 F9000.000 ; move to first brim point
G1 E5.00000 F2400.00000 ; unretract
G1 F1200.000
G1 X87.465 Y109.979 E0.02394 ; brim
G1 X87.850 Y109.233 E0.02370 ; brim
G1 X88.331 Y108.542 E0.02377 ; brim
G1 X88.835 Y107.982 E0.02125 ; brim
G1 X89.402 Y107.484 E0.02129 ; brim
G1 X90.022 Y107.059 E0.02120 ; brim
G1 X90.710 Y106.701 E0.02190 ; brim
G1 X91.399 Y106.439 E0.02080 ; brim
G1 X92.125 Y106.253 E0.02115 ; brim
G1 X92.884 Y106.152 E0.02162 ; brim
G1 X116.416 Y104.721 E0.66527 ; brim
G1 X117.591 Y104.688 E0.03317 ; brim
G1 X118.871 Y104.732 E0.03612 ; brim
G1 X120.142 Y104.858 E0.03605 ; brim
G1 X121.273 Y105.044 E0.03234 ; brim
G1 X122.669 Y105.368 E0.04046 ; brim
G1 X123.774 Y105.701 E0.03256 ; brim
G1 X125.150 Y106.219 E0.04151 ; brim
G1 X126.299 Y106.748 E0.03568 ; brim
G1 X127.484 Y107.390 E0.03805 ; brim
G1 X128.479 Y108.016 E0.03315 ; brim
G1 X129.656 Y108.871 E0.04106 ; brim
G1 X130.640 Y109.697 E0.03626 ; brim
G1 X131.558 Y110.576 E0.03585 ; brim
G1 X132.435 Y111.534 E0.03665 ; brim
G1 X133.277 Y112.587 E0.03805 ; brim
G1 X134.008 Y113.641 E0.03620 ; brim
G1 X134.666 Y114.748 E0.03634 ; brim
G1 X135.127 Y115.948 E0.03628 ; brim
G1 X135.325 Y117.226 E0.03647 ; brim
G1 X135.238 Y118.560 E0.03775 ; brim
G1 X134.999 Y119.466 E0.02644 ; brim
G1 X134.618 Y120.341 E0.02693 ; brim
G1 X133.970 Y121.418 E0.03545 ; brim
G1 X133.404 Y122.239 E0.02814 ; brim
G1 X132.818 Y123.006 E0.02726 ; brim
G1 X132.193 Y123.743 E0.02725 ; brim
G1 X131.503 Y124.479 E0.02848 ; brim
G1 X130.783 Y125.174 E0.02823 ; brim
G1 X130.201 Y125.686 E0.02187 ; brim
G1 X129.588 Y126.183 E0.02226 ; brim
G1 X128.779 Y126.780 E0.02839 ; brim
G1 X127.951 Y127.327 E0.02799 ; brim
G1 X127.098 Y127.830 E0.02796 ; brim
G1 X126.069 Y128.366 E0.03274 ; brim
G1 X124.858 Y128.901 E0.03736 ; brim
G1 X123.610 Y129.353 E0.03745 ; brim
G1 X122.396 Y129.704 E0.03567 ; brim
G1 X121.160 Y129.978 E0.03573 ; brim
G1 X119.865 Y130.176 E0.03696 ; brim
G1 X118.542 Y130.288 E0.03746 ; brim
G1 X117.206 Y130.310 E0.03770 ; brim
G1 X116.389 Y130.278 E0.02309 ; brim
G1 X92.721 Y128.832 E0.66911 ; brim
G1 X92.019 Y128.725 E0.02006 ; brim
G1 X91.311 Y128.533 E0.02069 ; brim
G1 X90.612 Y128.255 E0.02123 ; brim
G1 X89.949 Y127.896 E0.02128 ; brim
G1 X89.331 Y127.460 E0.02135 ; brim
G1 X88.761 Y126.950 E0.02161 ; brim
G1 X87.917 Y125.872 E0.03862 ; brim
G1 X87.460 Y125.006 E0.02763 ; brim
G1 X87.174 Y124.210 E0.02387 ; brim
G1 X86.994 Y123.385 E0.02384 ; brim
G1 X86.921 Y122.614 E0.02184 ; brim
G1 X86.936 Y112.130 E0.29584 ; brim
G1 X87.165 Y110.836 E0.03710 ; brim
G1 X87.534 Y110.901 F9000.000 ; move to first brim point
G1 F1200.000
G1 X87.806 Y110.141 E0.02278 ; brim
G1 X88.179 Y109.417 E0.02299 ; brim
G1 X88.620 Y108.785 E0.02174 ; brim
G1 X89.092 Y108.257 E0.01998 ; brim
G1 X89.625 Y107.788 E0.02003 ; brim
G1 X90.207 Y107.388 E0.01992 ; brim
G1 X90.854 Y107.049 E0.02062 ; brim
G1 X91.522 Y106.795 E0.02017 ; brim
G1 X92.207 Y106.621 E0.01992 ; brim
G1 X92.927 Y106.527 E0.02049 ; brim
G1 X116.436 Y105.097 E0.66463 ; brim
G1 X117.584 Y105.065 E0.03242 ; brim
G1 X118.839 Y105.107 E0.03544 ; brim
G1 X120.087 Y105.231 E0.03537 ; brim
G1 X121.194 Y105.413 E0.03165 ; brim
G1 X122.566 Y105.730 E0.03976 ; brim
G1 X123.647 Y106.056 E0.03185 ; brim
G1 X124.999 Y106.565 E0.04076 ; brim
G1 X126.125 Y107.082 E0.03497 ; brim
G1 X127.289 Y107.713 E0.03735 ; brim
G1 X128.263 Y108.325 E0.03245 ; brim
G1 X129.419 Y109.164 E0.04032 ; brim
G1 X130.384 Y109.974 E0.03555 ; brim
G1 X131.284 Y110.835 E0.03516 ; brim
G1 X132.144 Y111.775 E0.03594 ; brim
G1 X132.971 Y112.808 E0.03733 ; brim
G1 X133.687 Y113.840 E0.03546 ; brim
G1 X134.334 Y114.927 E0.03569 ; brim
G1 X134.767 Y116.064 E0.03434 ; brim
G1 X134.947 Y117.223 E0.03309 ; brim
G1 X134.869 Y118.482 E0.03561 ; brim
G1 X134.638 Y119.356 E0.02549 ; brim
G1 X134.278 Y120.178 E0.02534 ; brim
G1 X133.650 Y121.218 E0.03426 ; brim
G1 X133.097 Y122.021 E0.02753 ; brim
G1 X132.527 Y122.766 E0.02647 ; brim
G1 X131.915 Y123.489 E0.02672 ; brim
G1 X131.238 Y124.211 E0.02794 ; brim
G1 X130.531 Y124.893 E0.02773 ; brim
G1 X129.955 Y125.400 E0.02164 ; brim
G1 X129.354 Y125.887 E0.02182 ; brim
G1 X128.559 Y126.473 E0.02788 ; brim
G1 X127.748 Y127.009 E0.02744 ; brim
G1 X126.911 Y127.503 E0.02741 ; brim
G1 X125.901 Y128.029 E0.03214 ; brim
G1 X124.712 Y128.553 E0.03667 ; brim
G1 X123.500 Y128.993 E0.03638 ; brim
G1 X122.297 Y129.340 E0.03532 ; brim
G1 X121.085 Y129.608 E0.03504 ; brim
G1 X119.814 Y129.802 E0.03625 ; brim
G1 X118.517 Y129.911 E0.03674 ; brim
G1 X117.216 Y129.933 E0.03672 ; brim
G1 X116.410 Y129.901 E0.02277 ; brim
G1 X92.753 Y128.457 E0.66880 ; brim
G1 X92.087 Y128.354 E0.01902 ; brim
G1 X91.421 Y128.172 E0.01947 ; brim
G1 X90.763 Y127.909 E0.02002 ; brim
G1 X90.157 Y127.581 E0.01944 ; brim
G1 X89.574 Y127.172 E0.02010 ; brim
G1 X89.025 Y126.680 E0.02081 ; brim
G1 X88.225 Y125.653 E0.03672 ; brim
G1 X87.800 Y124.843 E0.02583 ; brim
G1 X87.533 Y124.095 E0.02240 ; brim
G1 X87.365 Y123.316 E0.02249 ; brim
G1 X87.297 Y122.588 E0.02063 ; brim
G1 X87.313 Y112.147 E0.29463 ; brim
G1 X87.523 Y110.960 E0.03402 ; brim
G1 X87.892 Y111.026 F9000.000 ; move to first brim point
G1 F1200.000
G1 X88.156 Y110.281 E0.02229 ; brim
G1 X88.508 Y109.601 E0.02160 ; brim
G1 X88.909 Y109.027 E0.01975 ; brim
G1 X89.351 Y108.532 E0.01872 ; brim
G1 X89.849 Y108.092 E0.01877 ; brim
G1 X90.393 Y107.716 E0.01865 ; brim
G1 X91.000 Y107.397 E0.01935 ; brim
G1 X91.626 Y107.158 E0.01892 ; brim
G1 X92.288 Y106.990 E0.01929 ; brim
G1 X92.969 Y106.901 E0.01936 ; brim
G1 X116.456 Y105.474 E0.66401 ; brim
G1 X117.577 Y105.442 E0.03166 ; brim
G1 X118.821 Y105.484 E0.03510 ; brim
G1 X120.032 Y105.604 E0.03435 ; brim
G1 X121.115 Y105.782 E0.03097 ; brim
G1 X122.464 Y106.093 E0.03906 ; brim
G1 X123.520 Y106.412 E0.03115 ; brim
G1 X124.848 Y106.910 E0.04002 ; brim
G1 X125.951 Y107.417 E0.03425 ; brim
G1 X127.094 Y108.035 E0.03666 ; brim
G1 X128.046 Y108.634 E0.03175 ; brim
G1 X129.182 Y109.457 E0.03958 ; brim
G1 X130.128 Y110.251 E0.03485 ; brim
G1 X131.010 Y111.095 E0.03446 ; brim
G1 X131.854 Y112.015 E0.03523 ; brim
G1 X132.665 Y113.028 E0.03661 ; brim
G1 X133.367 Y114.038 E0.03472 ; brim
G1 X134.002 Y115.106 E0.03505 ; brim
G1 X134.398 Y116.143 E0.03134 ; brim
G1 X134.570 Y117.221 E0.03082 ; brim
G1 X134.499 Y118.405 E0.03347 ; brim
G1 X134.287 Y119.218 E0.02371 ; brim
G1 X133.937 Y120.016 E0.02456 ; brim
G1 X133.331 Y121.018 E0.03305 ; brim
G1 X132.789 Y121.803 E0.02693 ; brim
G1 X132.230 Y122.533 E0.02594 ; brim
G1 X131.636 Y123.234 E0.02593 ; brim
G1 X130.973 Y123.943 E0.02740 ; brim
G1 X130.278 Y124.613 E0.02723 ; brim
G1 X129.709 Y125.114 E0.02141 ; brim
G1 X129.120 Y125.591 E0.02137 ; brim
G1 X128.339 Y126.167 E0.02738 ; brim
G1 X127.544 Y126.692 E0.02690 ; brim
G1 X126.724 Y127.175 E0.02686 ; brim
G1 X125.732 Y127.691 E0.03155 ; brim
G1 X124.577 Y128.201 E0.03562 ; brim
G1 X123.389 Y128.632 E0.03568 ; brim
G1 X122.210 Y128.974 E0.03463 ; brim
G1 X121.009 Y129.239 E0.03469 ; brim
G1 X119.764 Y129.428 E0.03555 ; brim
G1 X118.504 Y129.535 E0.03567 ; brim
G1 X117.225 Y129.556 E0.03610 ; brim
G1 X116.430 Y129.525 E0.02245 ; brim
G1 X92.802 Y128.083 E0.66802 ; brim
G1 X92.155 Y127.983 E0.01846 ; brim
G1 X91.532 Y127.812 E0.01823 ; brim
G1 X90.914 Y127.563 E0.01881 ; brim
G1 X90.347 Y127.255 E0.01820 ; brim
G1 X89.801 Y126.870 E0.01886 ; brim
G1 X89.290 Y126.411 E0.01939 ; brim
G1 X88.534 Y125.436 E0.03480 ; brim
G1 X88.141 Y124.681 E0.02403 ; brim
G1 X87.893 Y123.981 E0.02095 ; brim
G1 X87.736 Y123.249 E0.02114 ; brim
G1 X87.673 Y122.563 E0.01943 ; brim
G1 X87.690 Y112.164 E0.29344 ; brim
G1 X87.881 Y111.085 E0.03094 ; brim
G1 X88.250 Y111.150 F9000.000 ; move to first brim point
G1 F1200.000
G1 X88.507 Y110.421 E0.02180 ; brim
G1 X88.837 Y109.787 E0.02019 ; brim
G1 X89.198 Y109.269 E0.01779 ; brim
G1 X89.609 Y108.807 E0.01747 ; brim
G1 X90.074 Y108.395 E0.01751 ; brim
G1 X90.579 Y108.044 E0.01737 ; brim
G1 X91.145 Y107.745 E0.01805 ; brim
G1 X91.750 Y107.514 E0.01827 ; brim
G1 X92.369 Y107.358 E0.01803 ; brim
G1 X93.010 Y107.276 E0.01823 ; brim
G1 X116.476 Y105.850 E0.66340 ; brim
G1 X117.571 Y105.819 E0.03091 ; brim
G1 X118.802 Y105.861 E0.03476 ; brim
G1 X119.977 Y105.978 E0.03333 ; brim
G1 X121.036 Y106.150 E0.03028 ; brim
G1 X122.361 Y106.456 E0.03837 ; brim
G1 X123.394 Y106.767 E0.03044 ; brim
G1 X124.697 Y107.256 E0.03927 ; brim
G1 X125.777 Y107.751 E0.03354 ; brim
G1 X126.898 Y108.358 E0.03597 ; brim
G1 X127.830 Y108.943 E0.03105 ; brim
G1 X128.945 Y109.750 E0.03884 ; brim
G1 X129.872 Y110.528 E0.03414 ; brim
G1 X130.736 Y111.354 E0.03376 ; brim
G1 X131.563 Y112.256 E0.03453 ; brim
G1 X132.359 Y113.249 E0.03589 ; brim
G1 X133.046 Y114.237 E0.03397 ; brim
G1 X133.669 Y115.285 E0.03440 ; brim
G1 X134.029 Y116.223 E0.02836 ; brim
G1 X134.192 Y117.221 E0.02854 ; brim
G1 X134.129 Y118.329 E0.03129 ; brim
G1 X133.926 Y119.108 E0.02274 ; brim
G1 X133.598 Y119.852 E0.02294 ; brim
G1 X133.011 Y120.817 E0.03187 ; brim
G1 X132.481 Y121.585 E0.02633 ; brim
G1 X131.934 Y122.300 E0.02542 ; brim
G1 X131.358 Y122.980 E0.02515 ; brim
G1 X130.708 Y123.675 E0.02686 ; brim
G1 X130.026 Y124.333 E0.02673 ; brim
G1 X129.468 Y124.824 E0.02096 ; brim
G1 X128.886 Y125.295 E0.02114 ; brim
G1 X128.127 Y125.855 E0.02661 ; brim
G1 X127.348 Y126.370 E0.02635 ; brim
G1 X126.537 Y126.848 E0.02658 ; brim
G1 X125.563 Y127.354 E0.03095 ; brim
G1 X124.431 Y127.853 E0.03493 ; brim
G1 X123.278 Y128.272 E0.03461 ; brim
G1 X122.111 Y128.610 E0.03428 ; brim
G1 X120.934 Y128.869 E0.03400 ; brim
G1 X119.714 Y129.054 E0.03484 ; brim
G1 X118.479 Y129.158 E0.03496 ; brim
G1 X117.235 Y129.179 E0.03512 ; brim
G1 X116.451 Y129.148 E0.02213 ; brim
G1 X92.850 Y127.709 E0.66725 ; brim
G1 X92.244 Y127.617 E0.01730 ; brim
G1 X91.662 Y127.458 E0.01702 ; brim
G1 X91.083 Y127.226 E0.01758 ; brim
G1 X90.554 Y126.940 E0.01697 ; brim
G1 X90.044 Y126.582 E0.01759 ; brim
G1 X89.555 Y126.142 E0.01857 ; brim
G1 X88.843 Y125.220 E0.03287 ; brim
G1 X88.482 Y124.520 E0.02223 ; brim
G1 X88.253 Y123.868 E0.01950 ; brim
G1 X88.107 Y123.182 E0.01980 ; brim
G1 X88.050 Y122.538 E0.01823 ; brim
G1 X88.067 Y112.181 E0.29226 ; brim
G1 X88.239 Y111.209 E0.02786 ; brim
G1 E-3.50000 F3600.00000 ; retract
G1 F7200.000
G1 X88.507 Y110.421 E-0.39516 ; wipe and retract
G1 X88.837 Y109.787 E-0.33992 ; wipe and retract
G1 X89.198 Y109.269 E-0.29950 ; wipe and retract
G1 X89.609 Y108.807 E-0.29408 ; wipe and retract
G1 X89.761 Y108.672 E-0.09634 ; wipe and retract
G1 E-0.07500 F3600.00000 ; retract
G1 X118.783 Y106.237 F9000.000 ; move to first brim point
G1 E5.00000 F2400.00000 ; unretract
G1 F1200.000
G1 X119.922 Y106.351 E0.03231 ; brim
G1 X120.957 Y106.519 E0.02960 ; brim
G1 X122.258 Y106.819 E0.03767 ; brim
G1 X123.267 Y107.122 E0.02974 ; brim
G1 X124.546 Y107.601 E0.03853 ; brim
G1 X125.603 Y108.086 E0.03282 ; brim
G1 X126.703 Y108.681 E0.03528 ; brim
G1 X127.614 Y109.252 E0.03034 ; brim
G1 X128.708 Y110.044 E0.03809 ; brim
G1 X129.616 Y110.804 E0.03343 ; brim
G1 X130.463 Y111.614 E0.03306 ; brim
G1 X131.273 Y112.497 E0.03382 ; brim
G1 X132.053 Y113.469 E0.03517 ; brim
G1 X132.725 Y114.436 E0.03322 ; brim
G1 X133.337 Y115.463 E0.03374 ; brim
G1 X133.670 Y116.339 E0.02644 ; brim
G1 X133.814 Y117.222 E0.02524 ; brim
G1 X133.799 Y117.510 E0.00813 ; brim
G1 X133.786 Y117.750 F9000.000 ; move to first brim point
G1 F1200.000
G1 X133.760 Y118.252 E0.01420 ; brim
G1 X133.565 Y118.998 E0.02175 ; brim
G1 X133.258 Y119.687 E0.02129 ; brim
G1 X132.692 Y120.616 E0.03070 ; brim
